dist/images/icons/icon-message.svg

<svg width="26" height="18" viewBox="0 0 26 18" fill="none" xmlns="http://www.w3.org/2000/svg">
<path d="M1.72827 0.818481H25.1323C25.1627 0.818481 25.1928 0.821387 25.2222 0.827842C25.252 0.834298 25.2809 0.843659 25.3089 0.855924C25.3372 0.868513 25.3636 0.883684 25.3889 0.90176C25.4142 0.919836 25.4373 0.940171 25.459 0.963411C25.4804 0.986329 25.4996 1.01118 25.5165 1.0383C25.5333 1.06541 25.5475 1.09382 25.5589 1.12384C25.5706 1.15385 25.5793 1.18484 25.5854 1.21647C25.5911 1.24843 25.5941 1.28071 25.5941 1.31299V16.816C25.5941 16.8486 25.5911 16.8805 25.5854 16.9125C25.5793 16.9445 25.5706 16.9751 25.5589 17.0051C25.5475 17.0352 25.5333 17.0639 25.5165 17.0907C25.4996 17.1178 25.4804 17.143 25.459 17.1659C25.4373 17.1888 25.4142 17.2091 25.3889 17.2272C25.3636 17.2453 25.3372 17.2608 25.3089 17.273C25.2809 17.2856 25.252 17.295 25.2222 17.3011C25.1928 17.3076 25.1627 17.3108 25.1323 17.3108H1.72827C1.69789 17.3108 1.6678 17.3076 1.63802 17.3011C1.60854 17.295 1.57966 17.2856 1.55138 17.273C1.5234 17.2608 1.49692 17.2453 1.47165 17.2272C1.44638 17.2091 1.42322 17.1888 1.40156 17.1659C1.3802 17.143 1.36094 17.1178 1.3441 17.0907C1.32725 17.0639 1.31311 17.0352 1.30138 17.0051C1.28995 16.9751 1.28122 16.9445 1.2752 16.9125C1.26919 16.8805 1.26648 16.8486 1.26648 16.816V1.31299C1.26648 1.28071 1.26919 1.24843 1.2752 1.21647C1.28122 1.18484 1.28995 1.15385 1.30138 1.12384C1.31311 1.09382 1.32725 1.06541 1.3441 1.0383C1.36094 1.01118 1.3802 0.986329 1.40156 0.963411C1.42322 0.940171 1.44638 0.919836 1.47165 0.90176C1.49692 0.883684 1.5234 0.868513 1.55138 0.855924C1.57966 0.843659 1.60854 0.834298 1.63802 0.827842C1.6678 0.821387 1.69789 0.818481 1.72827 0.818481Z" fill="white"/>
<mask id="mask0_238_3907" style="mask-type:luminance" maskUnits="userSpaceOnUse" x="0" y="0" width="26" height="18">
<path d="M0.954956 0.508286H25.908V17.6133H0.954956V0.508286Z" fill="white"/>
</mask>
<g mask="url(#mask0_238_3907)">
<path d="M1.72827 0.818497H25.1323C25.1627 0.818497 25.1928 0.821402 25.2222 0.827858C25.252 0.834314 25.2809 0.843667 25.3089 0.855933C25.3372 0.868521 25.3636 0.883698 25.3889 0.901774C25.4142 0.91985 25.4373 0.940179 25.459 0.963419C25.4804 0.986337 25.4996 1.0112 25.5165 1.03831C25.5333 1.06542 25.5475 1.09382 25.5589 1.12384C25.5706 1.15386 25.5793 1.18485 25.5854 1.21648C25.5911 1.24844 25.5941 1.28072 25.5941 1.313V16.816C25.5941 16.8486 25.5911 16.8806 25.5854 16.9125C25.5793 16.9445 25.5706 16.9751 25.5589 17.0051C25.5475 17.0352 25.5333 17.0639 25.5165 17.0907C25.4996 17.1178 25.4804 17.143 25.459 17.1659C25.4373 17.1888 25.4142 17.2091 25.3889 17.2272C25.3636 17.2453 25.3372 17.2608 25.3089 17.2731C25.2809 17.2856 25.252 17.295 25.2222 17.3011C25.1928 17.3076 25.1627 17.3108 25.1323 17.3108H1.72827C1.69789 17.3108 1.6678 17.3076 1.63802 17.3011C1.60854 17.295 1.57966 17.2856 1.55138 17.2731C1.5234 17.2608 1.49692 17.2453 1.47165 17.2272C1.44638 17.2091 1.42322 17.1888 1.40156 17.1659C1.3802 17.143 1.36094 17.1178 1.3441 17.0907C1.32725 17.0639 1.31311 17.0352 1.30138 17.0051C1.28995 16.9751 1.28122 16.9445 1.2752 16.9125C1.26919 16.8806 1.26648 16.8486 1.26648 16.816V1.313C1.26648 1.28072 1.26919 1.24844 1.2752 1.21648C1.28122 1.18485 1.28995 1.15386 1.30138 1.12384C1.31311 1.09382 1.32725 1.06542 1.3441 1.03831C1.36094 1.0112 1.3802 0.986337 1.40156 0.963419C1.42322 0.940179 1.44638 0.91985 1.47165 0.901774C1.49692 0.883698 1.5234 0.868521 1.55138 0.855933C1.57966 0.843667 1.60854 0.834314 1.63802 0.827858C1.6678 0.821402 1.69789 0.818497 1.72827 0.818497Z" stroke="black" stroke-width="0.5" stroke-linecap="round" stroke-linejoin="round"/>
</g>
<mask id="mask1_238_3907" style="mask-type:luminance" maskUnits="userSpaceOnUse" x="1" y="7" width="25" height="11">
<path d="M1.26257 7.42296H25.9076V17.6133H1.26257V7.42296Z" fill="white"/>
</mask>
<g mask="url(#mask1_238_3907)">
<path d="M1.5741 16.9809L13.2763 7.7451L25.5939 17.3108" stroke="black" stroke-width="0.5" stroke-linejoin="round"/>
</g>
<path fill-rule="evenodd" clip-rule="evenodd" d="M1.56531 0.932105L13.2317 10.8222L25.2873 0.824295L1.56591 0.932428L1.56531 0.932105Z" fill="white"/>
<mask id="mask2_238_3907" style="mask-type:luminance" maskUnits="userSpaceOnUse" x="1" y="0" width="25" height="12">
<path d="M1.26257 0.508286H25.5995V11.1414H1.26257V0.508286Z" fill="white"/>
</mask>
<g mask="url(#mask2_238_3907)">
<path d="M1.56433 0.932119L13.2307 10.8222L25.2863 0.82431L1.56493 0.932441L1.56433 0.932119Z" stroke="black" stroke-width="0.5" stroke-linejoin="round"/>
</g>
</svg>

<svg width="26" height="18" fill="none" xmlns="http://www.w3.org/2000/svg"><path d="M1.728.818h23.404a.419.419 0 01.177.038.454.454 0 01.207.182.497.497 0 01.07.178.55.55 0 01.008.097v15.503a.547.547 0 01-.035.19.484.484 0 01-.25.267.412.412 0 01-.177.038H1.728a.422.422 0 01-.177-.038.437.437 0 01-.15-.107.487.487 0 01-.126-.253.52.52 0 01-.009-.097V1.313a.522.522 0 01.136-.35.465.465 0 01.236-.135c.03-.007.06-.01.09-.01z" fill="#fff"/><mask id="mask0_238_3907" style="mask-type:luminance" maskUnits="userSpaceOnUse" x="0" y="0" width="26" height="18"><path d="M.955.508h24.953v17.105H.955V.508z" fill="#fff"/></mask><g mask="url(#mask0_238_3907)"><path d="M1.728.818h23.404a.419.419 0 01.177.038.454.454 0 01.207.182.497.497 0 01.07.178.55.55 0 01.008.097v15.503a.546.546 0 01-.035.19.484.484 0 01-.25.267.418.418 0 01-.177.038H1.728a.422.422 0 01-.177-.038.443.443 0 01-.15-.107.487.487 0 01-.126-.253.519.519 0 01-.009-.097V1.313a.522.522 0 01.136-.35.465.465 0 01.236-.135c.03-.007.06-.01.09-.01z" stroke="#000" stroke-width=".5" stroke-linecap="round" stroke-linejoin="round"/></g><mask id="mask1_238_3907" style="mask-type:luminance" maskUnits="userSpaceOnUse" x="1" y="7" width="25" height="11"><path d="M1.263 7.423h24.645v10.19H1.263V7.423z" fill="#fff"/></mask><g mask="url(#mask1_238_3907)"><path d="M1.574 16.98l11.702-9.235 12.318 9.566" stroke="#000" stroke-width=".5" stroke-linejoin="round"/></g><path fill-rule="evenodd" clip-rule="evenodd" d="M1.565.932l11.667 9.89L25.287.824 1.566.932z" fill="#fff"/><mask id="mask2_238_3907" style="mask-type:luminance" maskUnits="userSpaceOnUse" x="1" y="0" width="25" height="12"><path d="M1.263.508h24.336v10.633H1.264V.508z" fill="#fff"/></mask><g mask="url(#mask2_238_3907)"><path d="M1.564.932l11.667 9.89L25.286.824 1.565.932h0z" stroke="#000" stroke-width=".5" stroke-linejoin="round"/></g></svg>
